icons/currency/currency.svg

<svg width="14" height="14" viewBox="0 0 14 14" fill="none"
    xmlns="http://www.w3.org/2000/svg">
    <path d="M5.00012 9.11765V9.11765C5.00012 9.69214 5.3319 10.215 5.85172 10.4596L6.14853 10.5993C6.68789 10.8531 7.31236 10.8531 7.85172 10.5993L8.14853 10.4596C8.66834 10.215 9.00012 9.69214 9.00012 9.11765V9.11765V9.11765C9.00012 8.54316 8.66834 8.02034 8.14853 7.77572L7.00012 7.23529L5.85172 6.69487C5.3319 6.45025 5.00012 5.92743 5.00012 5.35294V5.35294V5.35294C5.00012 4.76275 5.28687 4.20936 5.76903 3.869L5.84676 3.81414C6.53821 3.32606 7.46203 3.32606 8.15349 3.81414L8.23121 3.869C8.71338 4.20936 9.00012 4.76275 9.00012 5.35294V5.35294" stroke="red" stroke-linecap="round"/>
    <path d="M7.00012 2L6.99999 12" stroke="green" stroke-linecap="round"/>
</svg>

<svg xmlns="http://www.w3.org/2000/svg" width="14" height="14" fill="none" viewBox="0 0 14 14"><path stroke="red" stroke-linecap="round" d="M5 9.118v0c0 .574.332 1.097.852 1.342l.297.14a2 2 0 0 0 1.703 0l.297-.14c.52-.245.851-.768.851-1.342v0c0-.575-.332-1.098-.851-1.342L7 7.236l-1.148-.541A1.48 1.48 0 0 1 5 5.353v0c0-.59.287-1.144.769-1.484l.078-.055a2 2 0 0 1 2.306 0l.078.055c.482.34.77.894.77 1.484v0"/><path stroke="green" stroke-linecap="round" d="M7 2v10"/></svg>
